ix/tag-user_bulk.svg

<svg viewBox="0 0 24 24" fill="none" xmlns="http://www.w3.org/2000/svg" height="1em" width="1em">
  <path d="M12.0691 8.95005C12.0291 8.95005 11.9691 8.95005 11.9191 8.95005C10.8691 8.91005 10.0391 8.06005 10.0391 7.00005C10.0391 5.92005 10.9091 5.05005 11.9891 5.05005C13.0691 5.05005 13.9391 5.93005 13.9391 7.00005C13.9491 8.06005 13.1191 8.92005 12.0691 8.95005Z" fill="#292D32"/>
  <path d="M9.24945 11.96C7.91945 12.85 7.91945 14.3 9.24945 15.19C10.7595 16.2 13.2395 16.2 14.7495 15.19C16.0795 14.3 16.0795 12.85 14.7495 11.96C13.2395 10.96 10.7695 10.96 9.24945 11.96Z" fill="#292D32"/>
  <path opacity="0.4" d="M18 2H6C4.34 2 3 3.33 3 4.97V15.88C3 17.52 4.34 18.85 6 18.85H6.76C7.56 18.85 8.32 19.16 8.88 19.72L10.59 21.41C11.37 22.18 12.64 22.18 13.42 21.41L15.13 19.72C15.69 19.16 16.46 18.85 17.25 18.85H18C19.66 18.85 21 17.52 21 15.88V4.97C21 3.33 19.66 2 18 2ZM12 5.05C13.08 5.05 13.95 5.93 13.95 7C13.95 8.06 13.11 8.91 12.07 8.95C12.03 8.95 11.97 8.95 11.92 8.95C10.87 8.91 10.04 8.06 10.04 7C10.05 5.93 10.92 5.05 12 5.05ZM14.75 15.19C13.24 16.2 10.76 16.2 9.25 15.19C7.92 14.31 7.92 12.85 9.25 11.96C10.77 10.95 13.25 10.95 14.75 11.96C16.08 12.85 16.08 14.3 14.75 15.19Z" fill="#292D32"/>
</svg>

<svg viewBox="0 0 24 24" fill="none" xmlns="http://www.w3.org/2000/svg" height="1em" width="1em">
  <path d="M12.07 8.95h-.15A1.945 1.945 0 0 1 10.04 7c0-1.08.87-1.95 1.95-1.95s1.95.88 1.95 1.95c.01 1.06-.82 1.92-1.87 1.95Zm-2.82 3.01c-1.33.89-1.33 2.34 0 3.23 1.51 1.01 3.99 1.01 5.5 0 1.33-.89 1.33-2.34 0-3.23-1.51-1-3.98-1-5.5 0Z" fill="#292D32"/>
  <path opacity=".4" d="M18 2H6C4.34 2 3 3.33 3 4.97v10.91c0 1.64 1.34 2.97 3 2.97h.76c.8 0 1.56.31 2.12.87l1.71 1.69c.78.77 2.05.77 2.83 0l1.71-1.69c.56-.56 1.33-.87 2.12-.87H18c1.66 0 3-1.33 3-2.97V4.97C21 3.33 19.66 2 18 2Zm-6 3.05c1.08 0 1.95.88 1.95 1.95 0 1.06-.84 1.91-1.88 1.95h-.15A1.945 1.945 0 0 1 10.04 7c.01-1.07.88-1.95 1.96-1.95Zm2.75 10.14c-1.51 1.01-3.99 1.01-5.5 0-1.33-.88-1.33-2.34 0-3.23 1.52-1.01 4-1.01 5.5 0 1.33.89 1.33 2.34 0 3.23Z" fill="#292D32"/>
</svg>
